images/company3.svg

<svg width="222" height="40" viewBox="0 0 222 40" fill="none" xmlns="http://www.w3.org/2000/svg">
<g id="Frame" clip-path="url(#clip0_282_1443)">
<g id="Clip path group">
<mask id="mask0_282_1443" style="mask-type:luminance" maskUnits="userSpaceOnUse" x="0" y="0" width="222" height="40">
<g id="a">
<path id="Vector" d="M0.078125 0H221.131V40H0.078125V0Z" fill="white"/>
</g>
</mask>
<g mask="url(#mask0_282_1443)">
<g id="Group">
<path id="Vector_2" d="M120.352 37.3053H148.857V33.8316H125.236V22.6737H142.983V19.1579H125.236V8.88421H148.857V5.41053H120.352V37.3053ZM135.173 0.252632L131.299 4.56842L143.447 0.252632H135.194H135.173ZM196.752 33.8316V5.41053H192.289V37.3053H221.131V33.8316H196.752ZM162.815 25.0526L170.457 9.81053L178.204 25.0526H162.815ZM167.341 5.41053L151.131 37.3053H156.604L160.773 29.0526H180.225L184.415 37.3053H189.826L173.615 5.41053H167.341ZM101.047 20.1474H86.1413V9.17895H101.573C105.11 9.17895 107.11 10.8211 107.826 12.9474C108.31 14.3789 107.994 16.2737 107.194 17.5789C105.931 19.6842 103.489 20.1474 101.047 20.1474ZM104.857 23.9579C112.162 22.0211 112.878 16.5895 112.857 14.6316C112.415 8.94737 108.583 5.38947 101.657 5.38947H81.5518V37.2842H86.1202V23.9158H99.215L108.836 37.2842H114.604C114.604 37.2842 107.678 28.2737 104.836 23.9368M53.8465 36.0421C49.5868 36.0707 45.487 34.4214 42.4337 31.4509C39.3805 28.4803 37.6192 24.4274 37.5308 20.1684C37.5308 11.5158 44.5623 3.95789 54.2044 3.95789C56.3483 3.92119 58.4777 4.31464 60.4669 5.11497C62.4561 5.9153 64.2647 7.10628 65.7858 8.61752C67.3068 10.1288 68.5095 11.9296 69.3226 13.9135C70.1358 15.8975 70.5431 18.0244 70.5202 20.1684C70.5202 28.8421 62.7939 36.0421 53.8465 36.0421ZM54.015 0C41.0887 0 32.2465 9.11579 32.2465 20.1684C32.2465 31.7895 41.9939 40 54.015 40C66.036 40 75.7623 31.9158 75.7623 20.1684C75.7623 9.11579 66.836 0 54.015 0ZM20.7097 16.6947H24.015L30.036 5.41053H25.1939L20.7097 16.6947ZM4.54128 33.8316V5.41053H0.078125V37.3053H28.9202V33.8316H4.52023H4.54128Z" fill="white"/>
</g>
</g>
</g>
</g>
<defs>
<clipPath id="clip0_282_1443">
<rect width="221.053" height="40" fill="white" transform="translate(0.078125)"/>
</clipPath>
</defs>
</svg>

<svg width="222" height="40" fill="none" xmlns="http://www.w3.org/2000/svg"><g clip-path="url(#a)"><mask id="b" style="mask-type:luminance" maskUnits="userSpaceOnUse" x="0" y="0" width="222" height="40"><path d="M.078 0h221.053v40H.078V0Z" fill="#fff"/></mask><g mask="url(#b)"><path d="M120.352 37.305h28.505v-3.473h-23.621V22.674h17.747v-3.516h-17.747V8.884h23.621V5.411h-28.505v31.894ZM135.173.253l-3.874 4.315L143.447.253H135.173Zm61.579 33.579V5.41h-4.463v31.894h28.842v-3.473h-24.379Zm-33.937-8.78 7.642-15.241 7.747 15.242h-15.389Zm4.526-19.641-16.21 31.894h5.473l4.169-8.252h19.452l4.19 8.252h5.411L173.615 5.411h-6.274Zm-66.294 14.736H86.141V9.18h15.432c3.537 0 5.537 1.642 6.253 3.768.484 1.432.168 3.327-.632 4.632-1.263 2.105-3.705 2.568-6.147 2.568Zm3.81 3.81c7.305-1.936 8.021-7.367 8-9.325-.442-5.685-4.274-9.243-11.2-9.243H81.552v31.895h4.568V23.916h13.095l9.621 13.368h5.768s-6.926-9.01-9.768-13.347m-50.99 12.105a16.21 16.21 0 0 1-16.315-15.874c0-8.652 7.031-16.21 16.673-16.21a16.042 16.042 0 0 1 16.316 16.21c0 8.674-7.726 15.874-16.673 15.874ZM54.015 0C41.089 0 32.246 9.116 32.246 20.168 32.246 31.79 41.994 40 54.015 40c12.021 0 21.747-8.084 21.747-19.832C75.762 9.116 66.836 0 54.015 0ZM20.71 16.695h3.305L30.036 5.41h-4.842L20.71 16.695ZM4.54 33.832V5.41H.078v31.894H28.92v-3.473H4.52h.021Z" fill="#fff"/></g></g><defs><clipPath id="a"><path fill="#fff" transform="translate(.078)" d="M0 0h221.053v40H0z"/></clipPath></defs></svg>
